X:78
T: ES STEHT EIN BAUM IM GRUENEN THAL
N: Z0078
O: Europa, Mitteleuropa, Deutschland, Franken
R: Sagen - Lied, Romanze, Tod
M: 4/4
L: 1/8
K: D
A | A3AF2D2 | E2E2E2z
A | A3AF2D2 | E6z
e | e3ec2A2 | d2d2d2z
d | e3ec2A2 | d6z

